web/packages/design/src/ResourceIcon/assets/qualified.svg

<svg width="72" height="72" viewBox="0 0 72 72" fill="none" xmlns="http://www.w3.org/2000/svg">
<g clip-path="url(#clip0_16965_14095)">
<path d="M63.0017 27.002L36.0017 0.00195312L9.0017 27.002C6.61571 29.3894 5.27539 32.6266 5.27539 36.002C5.27539 39.3773 6.61571 42.6145 9.0017 45.002L16.5017 52.502L28.5017 64.502L33.0017 69.002L36.0017 72.002L39.0017 69.002L43.5017 64.502L55.5017 52.502L63.0017 45.002C65.3877 42.6145 66.728 39.3773 66.728 36.002C66.728 32.6266 65.3877 29.3894 63.0017 27.002ZM49.6028 53.9009C49.5869 51.123 48.4771 48.4633 46.5138 46.4979L36.406 36.3901C36.3571 36.34 36.2986 36.3001 36.234 36.2729C36.1694 36.2458 36.1001 36.2317 36.03 36.2317C35.9599 36.2317 35.8906 36.2458 35.826 36.2729C35.7614 36.3001 35.703 36.34 35.654 36.3901L25.4896 46.4979C23.5229 48.4603 22.4087 51.1186 22.3885 53.8968L18.7497 50.258C18.0578 49.5687 17.5088 48.7496 17.1342 47.8476C16.7595 46.9457 16.5667 45.9786 16.5667 45.002C16.5667 44.0253 16.7595 43.0582 17.1342 42.1563C17.5088 41.2543 18.0578 40.4352 18.7497 39.7459L36.0017 22.502L53.2497 39.754C53.9416 40.4433 54.4906 41.2624 54.8652 42.1644C55.2398 43.0663 55.4327 44.0334 55.4327 45.01C55.4327 45.9867 55.2398 46.9538 54.8652 47.8557C54.4906 48.7577 53.9416 49.5768 53.2497 50.2661L49.6028 53.9009ZM60.7497 42.7499L58.6028 44.9009C58.5826 42.1227 57.4684 39.4643 55.5017 37.502L36.3777 18.378C36.3288 18.3278 36.2703 18.288 36.2057 18.2608C36.1411 18.2336 36.0718 18.2196 36.0017 18.2196C35.9316 18.2196 35.8623 18.2336 35.7977 18.2608C35.7331 18.288 35.6746 18.3278 35.6257 18.378L16.5017 37.502C14.535 39.4643 13.4208 42.1227 13.4006 44.9009L11.2537 42.7499C10.3668 41.8638 9.66322 40.8115 9.18318 39.6533C8.70314 38.4951 8.45606 37.2537 8.45606 35.9999C8.45606 34.7462 8.70314 33.5047 9.18318 32.3465C9.66322 31.1883 10.3668 30.1361 11.2537 29.2499L36.0017 4.50195L60.7497 29.2499C61.6366 30.1361 62.3402 31.1883 62.8202 32.3465C63.3003 33.5047 63.5473 34.7462 63.5473 35.9999C63.5473 37.2537 63.3003 38.4951 62.8202 39.6533C62.3402 40.8115 61.6366 41.8638 60.7497 42.7499Z" fill="#67B8C7"/>
</g>
<defs>
<clipPath id="clip0_16965_14095">
<rect width="72" height="72" fill="white" transform="translate(0 0.00195312)"/>
</clipPath>
</defs>
</svg>

<svg xmlns="http://www.w3.org/2000/svg" width="72" height="72" fill="none" viewBox="0 0 72 72"><g clip-path="url(#a)"><path fill="#67b8c7" d="m63.002 27.002-27-27-27 27a12.73 12.73 0 0 0 0 18l7.5 7.5 12 12 4.5 4.5 3 3 3-3 4.5-4.5 12-12 7.5-7.5a12.73 12.73 0 0 0 0-18m-13.4 26.899a10.56 10.56 0 0 0-3.088-7.403L36.406 36.39a.525.525 0 0 0-.752 0L25.49 46.498a10.56 10.56 0 0 0-3.101 7.399l-3.64-3.639a7.42 7.42 0 0 1 0-10.512l17.253-17.244L53.25 39.754a7.42 7.42 0 0 1 0 10.512zM60.75 42.75l-2.147 2.15a10.56 10.56 0 0 0-3.101-7.398L36.378 18.378a.524.524 0 0 0-.752 0L16.502 37.502a10.56 10.56 0 0 0-3.101 7.399l-2.147-2.151a9.54 9.54 0 0 1 0-13.5L36.002 4.502 60.75 29.25a9.54 9.54 0 0 1 0 13.5"/></g><defs><clipPath id="a"><path fill="#fff" d="M0 .002h72v72H0z"/></clipPath></defs></svg>
